packages/foundations/assets/icons/functional/images/audio & video/skip_forward_64.svg

<svg width="64" height="64" viewBox="0 0 64 64" fill="none" xmlns="http://www.w3.org/2000/svg">
<g clip-path="url(#clip0_2202_581)">
<path fill-rule="evenodd" clip-rule="evenodd" d="M17.331 12C18.2344 12.0076 19.1169 12.2726 19.875 12.764L43.644 28.389C44.2209 28.7973 44.6909 29.3387 45.014 29.9673C45.3371 30.596 45.5038 31.2932 45.5 32C45.5038 32.7068 45.3371 33.404 45.014 34.0327C44.6909 34.6613 44.2209 35.2027 43.644 35.611L19.875 51.236C19.1169 51.7274 18.2344 51.9924 17.331 52C14.925 52 13 49.986 13 47.556V16.444C13 14.014 14.925 12 17.331 12ZM17.331 15C16.66 15 16 15.5 16 16.444V47.556C16 48.364 16.616 49 17.331 49C17.579 49 17.828 48.98 18.251 48.714C26.24 43.6696 34.1353 38.4784 41.933 33.143C42.403 32.826 42.5 32.428 42.5 32C42.5 31.572 42.402 31.173 41.933 30.856L18.253 15.288C18.01 15.132 17.801 15 17.331 15ZM51 13.5V50.5C51 50.8978 50.842 51.2794 50.5607 51.5607C50.2794 51.842 49.8978 52 49.5 52C49.1022 52 48.7206 51.842 48.4393 51.5607C48.158 51.2794 48 50.8978 48 50.5V13.5C48 13.1022 48.158 12.7206 48.4393 12.4393C48.7206 12.158 49.1022 12 49.5 12C49.8978 12 50.2794 12.158 50.5607 12.4393C50.842 12.7206 51 13.1022 51 13.5Z" fill="#1A1C1F"/>
</g>
<defs>
<clipPath id="clip0_2202_581">
<rect width="64" height="64" fill="white"/>
</clipPath>
</defs>
</svg>

<svg xmlns="http://www.w3.org/2000/svg" width="64" height="64" fill="none"><g clip-path="url(#a)"><path fill="#1A1C1F" fill-rule="evenodd" d="M17.331 12a4.75 4.75 0 0 1 2.544.764l23.769 15.625A4.4 4.4 0 0 1 45.5 32a4.4 4.4 0 0 1-1.856 3.611L19.875 51.236a4.75 4.75 0 0 1-2.544.764C14.925 52 13 49.986 13 47.556V16.444C13 14.014 14.925 12 17.331 12m0 3C16.66 15 16 15.5 16 16.444v31.112c0 .808.616 1.444 1.331 1.444.248 0 .497-.02.92-.286a769 769 0 0 0 23.682-15.571c.47-.317.567-.715.567-1.143s-.098-.827-.567-1.144l-23.68-15.568c-.243-.156-.452-.288-.922-.288M51 13.5v37a1.5 1.5 0 1 1-3 0v-37a1.5 1.5 0 1 1 3 0" clip-rule="evenodd"/></g><defs><clipPath id="a"><path fill="#fff" d="M0 0h64v64H0z"/></clipPath></defs></svg>
